X:66
T: BRUEDER ZU DEN FESTLICHEN GELAGEN
N: B0552
O: Europa, Mitteleuropa, Deutschland
R: Studenten -, Trink - Lied
M: 2/4
L: 1/16
K: G
 | D4G4 | B6G2 | E3DE2F2 | G4D4 |
A3GF2G2 | A2d2B2G2 | F4E4 | D4z4 |
D4G4 | B6G2 | E3DE2F2 | G4D4 |
A3GF2G2 | A2d2B2G2 | F4E4 | D4z4 |
c3Bc2B2 | A2DDD2D2 |
d3ed2c2 | B2GGG2G2 |
B3AB2c2 | d4G2A2 | B4A4 | G4z4 |
c3Bc2B2 | A2DDD2D2 |
d3ed2c2 | B2GGG2G2 |
B3AB2c2 | d4G2A2 | B4A4 | G4z4

@@@ Tune index: 2284
